icons/1_Primary/bitFlyer.svg

<svg width="1024" height="1024" viewBox="0 0 1024 1024" fill="none" xmlns="http://www.w3.org/2000/svg">
<g clip-path="url(#clip0_2_1626)">
<path d="M512 1024C794.77 1024 1024 794.77 1024 512C1024 229.23 794.77 0 512 0C229.23 0 0 229.23 0 512C0 794.77 229.23 1024 512 1024Z" fill="#728DBE"/>
<path d="M512 447.48C524.761 447.48 537.235 451.264 547.845 458.354C558.456 465.443 566.725 475.52 571.609 487.309C576.492 499.099 577.77 512.072 575.28 524.587C572.791 537.103 566.646 548.599 557.623 557.623C548.599 566.646 537.103 572.791 524.587 575.28C512.072 577.77 499.099 576.492 487.309 571.609C475.52 566.725 465.443 558.456 458.354 547.845C451.264 537.235 447.48 524.761 447.48 512C447.48 494.888 454.278 478.477 466.377 466.377C478.477 454.278 494.888 447.48 512 447.48ZM297 297H427.09V427.09H297V297ZM447 297H577.1V427.09H447V297ZM297 447H427.09V577.1H297V447ZM297 596.9H427.09V727H297V596.9ZM596.91 297H727V427.09H596.91V297Z" fill="white"/>
</g>
<defs>
<clipPath id="clip0_2_1626">
<rect width="1024" height="1024" fill="white"/>
</clipPath>
</defs>
</svg>

<svg xmlns="http://www.w3.org/2000/svg" viewBox="0 0 1024 1024">
   <circle cx="512" cy="512" r="512" style="fill:#468ccb"/>
   <path d="M512 447.48A64.52 64.52 0 1 1 447.48 512 64.52 64.52 0 0 1 512 447.48ZM297 297h130.09v130.09H297Zm150 0h130.1v130.09H447ZM297 447h130.09v130.1H297Zm0 149.9h130.09V727H297ZM596.91 297H727v130.09H596.91Z" style="fill:#fff"/>
</svg>
